X:10829
T:Minuet,(Harmony). BC.53b
M:3/4
L:1/8
Q:120
S:Benjamin Cooke MS.circa 1770, F.Kidson Coll.
R:Minuet
O:England
A:x
Z:vmp.John Bagnall
K:D
F2 D2 A2 | "tr"F4 A2 | d2 D2 F2 | "tr"A4 A2 | G2 GGGG | F2 F2 E2 | DF A2
 A2 | {G}F6 |!|
d2 dddd | "tr" c4 A2 | Bd c2 B2 | A4 B2 | c2 d2 B2 | c2 c2 B2 | A2 "tr"^
G3 A | A2 AGFE |! F2 z2 F2 | E2 z2 E2 |  D2 F2 D2 | A2 G2 F2 | e2 d2 c2
|
 de f2 d2 | GA "tr"F3 E | D6 |]
